X:303
T: WILLST DU DEIN HERZ MIR SCHENKEN
N: B0355
O: Europa, Mitteleuropa, Deutschland
R: Liebes - Lied, Liebes - Lust
M: 2/4
L: 1/16
K: Eb
E2 | E2G2B2e2 | e2d2z2
g2 | fdcBA2A2 | A2G2z2
B2 | =A2e2e2d2 | d2c2
e4 | dfdBce=A2 | =A4B2
B2 | BGA2fedcBA | A2G2z2
c2 | =B2c2f2e2 | e2d2z2
e2 | dBAGAcec | BGFE
A4 | GBGEFAD2 | D4E2

